330
albertroad.htmlalbertroad.htmlalbertroad.htmlalbertroad.htmlalbertroad.htmlalbertroad.htmlalbertroad.html<P ALIGN=Right>Sean McCusker
albertroad.htmlalbertroad.html

T:Sean McCusker's
M:C|
L:1/8
C:Sean McCusker
R:reel
D:Laurence Nugent: Two for Two
Z:Devin McCabe
K:G
B|:dGBe d~G3|BG (3Bcd gedB|ABcd ~e3f|~g2ag edBc|
!d~g3 ac'ba|gedB GA (3Bcd|eaag (3efg dg|1(3efg dB ~G3B:|2(3efg dB G2 (3Bcd|
!:(3gfe dB GABc|degb ~a2ga|b2ag (3efg dB|degb ageg|
!d~B3 A3B|degb ~a2ga|b2ag (3efg dg|1(3efg dB G2 (3Bcd:|2(3efg dB ~G3B||

%  ABC2Win Version 2.1 10/25/2001



albertroad.htmlalbertroad.htmlalbertroad.htmlalbertroad.htmlalbertroad.htmlalbertroad.html
0

